X:7
T:Whirlygig
C:Jackie Tolliday-Bailey
M:4/4
L:1/8
K:Bm
dc | B2F2 D2F2 | BABc d2 cB |\
 A2E2 C2E2 | cdcB A2 dc |
B2 F2 D2 F2 | BABc d2 cB | \
A2 dd A2 d2 | cBAc B2 dc |
B2 BA B2 F2 | BcBA B2 F2 | \
A2 AB A2 A2 | ABA^G A2 A2 |
B2 BAB2  F2 | BcBA B2 F2 | \
d2B2F2B2 | cBcd B2 ||

